_site/images/icons/lock-access.svg

<svg height="36" viewBox="0 0 36 36" width="36" xmlns="http://www.w3.org/2000/svg"><path d="m34.2 0h-10.8c-.9941125 0-1.8.80588745-1.8 1.8s.8058875 1.8 1.8 1.8h9v9c0 .9941125.8058875 1.8 1.8 1.8s1.8-.8058875 1.8-1.8v-10.8c0-.99411255-.8058875-1.8-1.8-1.8zm0 21.6c-.9941125 0-1.8.8058875-1.8 1.8v9h-9c-.9941125 0-1.8.8058875-1.8 1.8s.8058875 1.8 1.8 1.8h10.8c.9941125 0 1.8-.8058875 1.8-1.8v-10.8c0-.9941125-.8058875-1.8-1.8-1.8zm-16.2-14.4c-2.9823376 0-5.4 2.41766235-5.4 5.4v1.8c-1.9882251 0-3.6 1.6117749-3.6 3.6v7.2c0 1.9882251 1.6117749 3.6 3.6 3.6h10.8c1.9882251 0 3.6-1.6117749 3.6-3.6v-7.2c0-1.9882251-1.6117749-3.6-3.6-3.6v-1.8c0-2.98233765-2.4176624-5.4-5.4-5.4zm-1.8 5.4c0-.9941125.8058875-1.8 1.8-1.8s1.8.8058875 1.8 1.8v1.8h-3.6zm7.2 12.6h-10.8v-7.2h10.8zm-21.6-10.8c.99411255 0 1.8-.8058875 1.8-1.8v-9h9c.9941125 0 1.8-.80588745 1.8-1.8s-.8058875-1.8-1.8-1.8h-10.8c-.99411255 0-1.8.80588745-1.8 1.8v10.8c0 .9941125.80588745 1.8 1.8 1.8zm10.8 18h-9v-9c0-.9941125-.80588745-1.8-1.8-1.8s-1.8.8058875-1.8 1.8v10.8c0 .9941125.80588745 1.8 1.8 1.8h10.8c.9941125 0 1.8-.8058875 1.8-1.8s-.8058875-1.8-1.8-1.8z" fill="#0b7a76"/></svg>

<?xml version="1.0" encoding="UTF-8"?>
<svg width="36px" height="36px" viewBox="0 0 36 36" version="1.1" xmlns="http://www.w3.org/2000/svg" xmlns:xlink="http://www.w3.org/1999/xlink">
    <!-- Generator: Sketch 52.6 (67491) - http://www.bohemiancoding.com/sketch -->
    <title>lock-access</title>
    <desc>Created with Sketch.</desc>
    <g id="Landing-page" stroke="none" stroke-width="1" fill="none" fill-rule="evenodd">
        <g id="1.1--Home" transform="translate(-173.000000, -8166.000000)" fill="#0B7A76" fill-rule="nonzero">
            <g id="Benefit" transform="translate(92.000000, 7937.000000)">
                <g id="Group-50" transform="translate(81.000000, 229.000000)">
                    <g id="Group-11">
                        <g id="lock-access">
                            <path d="M34.2,0 L23.4,0 C22.4058875,0 21.6,0.80588745 21.6,1.8 C21.6,2.79411255 22.4058875,3.6 23.4,3.6 L32.4,3.6 L32.4,12.6 C32.4,13.5941125 33.2058875,14.4 34.2,14.4 C35.1941125,14.4 36,13.5941125 36,12.6 L36,1.8 C36,0.80588745 35.1941125,0 34.2,0 Z M34.2,21.6 C33.2058875,21.6 32.4,22.4058875 32.4,23.4 L32.4,32.4 L23.4,32.4 C22.4058875,32.4 21.6,33.2058875 21.6,34.2 C21.6,35.1941125 22.4058875,36 23.4,36 L34.2,36 C35.1941125,36 36,35.1941125 36,34.2 L36,23.4 C36,22.4058875 35.1941125,21.6 34.2,21.6 Z M18,7.2 C15.0176624,7.2 12.6,9.61766235 12.6,12.6 L12.6,14.4 C10.6117749,14.4 9,16.0117749 9,18 L9,25.2 C9,27.1882251 10.6117749,28.8 12.6,28.8 L23.4,28.8 C25.3882251,28.8 27,27.1882251 27,25.2 L27,18 C27,16.0117749 25.3882251,14.4 23.4,14.4 L23.4,12.6 C23.4,9.61766235 20.9823376,7.2 18,7.2 Z M16.2,12.6 C16.2,11.6058875 17.0058875,10.8 18,10.8 C18.9941125,10.8 19.8,11.6058875 19.8,12.6 L19.8,14.4 L16.2,14.4 L16.2,12.6 Z M23.4,25.2 L12.6,25.2 L12.6,18 L23.4,18 L23.4,25.2 Z M1.8,14.4 C2.79411255,14.4 3.6,13.5941125 3.6,12.6 L3.6,3.6 L12.6,3.6 C13.5941125,3.6 14.4,2.79411255 14.4,1.8 C14.4,0.80588745 13.5941125,0 12.6,0 L1.8,0 C0.80588745,0 0,0.80588745 0,1.8 L0,12.6 C0,13.5941125 0.80588745,14.4 1.8,14.4 Z M12.6,32.4 L3.6,32.4 L3.6,23.4 C3.6,22.4058875 2.79411255,21.6 1.8,21.6 C0.80588745,21.6 0,22.4058875 0,23.4 L0,34.2 C0,35.1941125 0.80588745,36 1.8,36 L12.6,36 C13.5941125,36 14.4,35.1941125 14.4,34.2 C14.4,33.2058875 13.5941125,32.4 12.6,32.4 Z" id="Shape"></path>
                        </g>
                    </g>
                </g>
            </g>
        </g>
    </g>
</svg>
